X:5285
T:Salmon tails up the water
A:Northumberland
M:C
O:England
R:Reel
Z:Richard Robinson 
%%TUNEURL: http://www.leeds.ac.uk/music/Info/RRTuneBk/gettune/00000af1.html
%%ID:00000af1
K:G
GE DE G2G>A | Bd AB/A/ GED2 | \
GE DE G2G>A | Bd AB/A/ G2G2 :|\
Bd d2 ce e2 | dB AB/A/ GED2 |
Bd d2 ce e>f | gf ed e2g2 |\
Bd d2 ce e2 | dB AB/A/ GE DE | \
GE DE G2 G>A | Bd AB/A/ G2G2|]
